X:1
T:<A href="http://www.8ung.at/abctransposer/noahmaz.mid">Noah Mazurka
C:Jens Wollschlger
O:Germany
R:Mazurka
M:6/8
L:1/8
K:Gdor
|:G2B dfd|ecA ceg|fdB GBd|fde2e4|
G2B dfd|ecA ceg|fdB GBd|edc2c4:|
|:f2d Bdf|ecA ceg|fdB GBd|fde2e4|
f2d Bdf|ecA ceg|fdB GBd|edc2c4:|
